X:22
T:The Prudence May Presume
S:John Moore's Book 1
Z:Transcribed by Paul Barber-Riley  April 2016
M:3/4
L:1/8
K:G
%%VWML: Moore1-4493-p14-0
F:http://www.vwml.org/record/Moore1/4493/p14
d|d2B2c2|(d>e) e3d|dcB2A2|d>BG2zd|
d2B2c2|(de)e3d|(gf)(ed) cB|(d{d}B A2):|      %Something in last bar I don't understand
|:A|A2 (3cBA (3cBA |B2c2d2|D2 (3cBA (3cBA|B2c2zd|
d2B2c2|(dg) (fa) (gd)|(3edc B2A2|G4:|
